**kern	**silbe	**kern	**silbe	**kern	**silbe	**harmony	**phrase	**leadinstrument	**rhyme	**timestamp	**harte
*ICvox	*	*ICvox	*	*ICvox	*	*M4/4	*	*	*	*	*M4/4
*VRlead	*	*VRharmonize*VRresponse	*	*VRharmonize*VRresponse*VRbacking	*	*	*	*	*	*	*
*Hstimme	*	*Nstimme	*	*Nstimme	*	*	*	*	*	*	*
*e-:	*	*e-:	*	*e-:	*	*e-:	*	*	*	*	*e-:
*M4/4	*	*M4/4	*	*M4/4	*	*	*	*	*	*	*
*clefG2	*	*clefG2	*	*clefG2	*	*	*	*	*	*	*
r;	.	r;	.	r;	.	1r;	.	r	.	0	N.C.
=1	=1	=1	=1	=1	=1	=1	=1	=1	=1	=1	=1
*>Letter>A	*>Letter>A	*>Letter>A	*>Letter>A	*>Letter>A	*>Letter>A	*>Letter>A	*>Letter>A	*>Letter>A	*>Letter>A	*>Letter>A	*>Letter>A
*>Label>Intro	*>Label>Intro	*>Label>Intro	*>Label>Intro	*>Label>Intro	*>Label>Intro	*>Label>Intro	*>Label>Intro	*>Label>Intro	*>Label>Intro	*>Label>Intro	*>Label>Intro
1r	.	1r	.	1r	.	1Gm	newline	r	.	0.07	G:1
=2	=2	=2	=2	=2	=2	=2	=2	=2	=2	=2	=2
1r	.	1r	.	1r	.	1Gm	.	r	.	1.786	G:1
=3	=3	=3	=3	=3	=3	=3	=3	=3	=3	=3	=3
1r	.	1r	.	1r	.	1Em	.	r	.	3.503	E:1
=4	=4	=4	=4	=4	=4	=4	=4	=4	=4	=4	=4
1r	.	1r	.	1r	.	1Em	.	r	.	5.22	E:1
=5	=5	=5	=5	=5	=5	=5	=5	=5	=5	=5	=5
1r	.	1r	.	1r	.	1Gm	newline	r	.	6.937	G:1
=6	=6	=6	=6	=6	=6	=6	=6	=6	=6	=6	=6
1r	.	1r	.	1r	.	1Gm	.	r	.	8.678	G:1
=7	=7	=7	=7	=7	=7	=7	=7	=7	=7	=7	=7
1r	.	1r	.	1r	.	1Dm	newline	r	.	10.42	D:1
=8	=8	=8	=8	=8	=8	=8	=8	=8	=8	=8	=8
1r	.	1r	.	1r	.	1Dm	.	r	.	12.169	D:1
=9	=9	=9	=9	=9	=9	=9	=9	=9	=9	=9	=9
1r	.	1r	.	1r	.	1N	.	r	.	13.918	N.C.
=10	=10	=10	=10	=10	=10	=10	=10	=10	=10	=10	=10
1r	.	1r	.	1r	.	1N	.	r	.	15.667	N.C.
=11	=11	=11	=11	=11	=11	=11	=11	=11	=11	=11	=11
1r	.	1r	.	1r	.	1N	newline	r	.	17.416	N.C.
=12	=12	=12	=12	=12	=12	=12	=12	=12	=12	=12	=12
1r	.	1r	.	1r	.	1N	.	r	.	19.057	N.C.
=13	=13	=13	=13	=13	=13	=13	=13	=13	=13	=13	=13
1r	.	1r	.	1r	.	1N	.	r	.	20.698	N.C.
=14	=14	=14	=14	=14	=14	=14	=14	=14	=14	=14	=14
1r	.	1r	.	1r	.	1N	.	r	.	22.339	N.C.
=15	=15	=15	=15	=15	=15	=15	=15	=15	=15	=15	=15
*>Letter>B2	*>Letter>B2	*>Letter>B2	*>Letter>B2	*>Letter>B2	*>Letter>B2	*>Letter>B2	*>Letter>B2	*>Letter>B2	*>Letter>B2	*>Letter>B2	*>Letter>B2
*>Label>Intro	*>Label>Intro	*>Label>Intro	*>Label>Intro	*>Label>Intro	*>Label>Intro	*>Label>Intro	*>Label>Intro	*>Label>Intro	*>Label>Intro	*>Label>Intro	*>Label>Intro
1r	.	1r	.	1r	.	1E-m	newline	guitar	.	23.979	E-:min
=16	=16	=16	=16	=16	=16	=16	=16	=16	=16	=16	=16
1r	.	1r	.	1r	.	1D-M	.	guitar	.	25.787	D-:maj
=17	=17	=17	=17	=17	=17	=17	=17	=17	=17	=17	=17
1r	.	1r	.	1r	.	1E-m	.	guitar	.	27.595	E-:min
=18	=18	=18	=18	=18	=18	=18	=18	=18	=18	=18	=18
1r	.	1r	.	1r	.	1D-M	.	guitar	.	29.402	D-:maj
=19	=19	=19	=19	=19	=19	=19	=19	=19	=19	=19	=19
1r	.	1r	.	1r	.	1E-m	newline	guitar	.	31.21	E-:min
=20	=20	=20	=20	=20	=20	=20	=20	=20	=20	=20	=20
1r	.	1r	.	1r	.	1D-M	.	guitar	.	32.978	D-:maj
=21	=21	=21	=21	=21	=21	=21	=21	=21	=21	=21	=21
1r	.	1r	.	1r	.	1E-m	.	guitar	.	34.747	E-:min
=22	=22	=22	=22	=22	=22	=22	=22	=22	=22	=22	=22
1r	.	1r	.	1r	.	1D-M	.	guitar	.	36.515	D-:maj
=23	=23	=23	=23	=23	=23	=23	=23	=23	=23	=23	=23
*>Letter>C	*>Letter>C	*>Letter>C	*>Letter>C	*>Letter>C	*>Letter>C	*>Letter>C	*>Letter>C	*>Letter>C	*>Letter>C	*>Letter>C	*>Letter>C
*>Label>Verse	*>Label>Verse	*>Label>Verse	*>Label>Verse	*>Label>Verse	*>Label>Verse	*>Label>Verse	*>Label>Verse	*>Label>Verse	*>Label>Verse	*>Label>Verse	*>Label>Verse
8r	.	1r	.	1r	.	1E-m	newline	voice	.	38.283	E-:min
8b-	They	.	.	.	.	.	.	.	.	.	.
8a-	told	.	.	.	.	.	.	.	.	.	.
8b-	him	.	.	.	.	.	.	.	.	.	.
8a-	don't	.	.	.	.	.	.	.	.	.	.
8b-	you	.	.	.	.	.	.	.	.	.	.
8a-	e-	.	.	.	.	.	.	.	.	.	.
8b-	-ver	.	.	.	.	.	.	.	.	.	.
=24	=24	=24	=24	=24	=24	=24	=24	=24	=24	=24	=24
8dd-	come	1r	.	1r	.	1D-M	.	voice	.	39.944	D-:maj
8b-	a-	.	.	.	.	.	.	.	.	.	.
4a-	-round	.	.	.	.	.	.	.	.	.	.
4b-	here	.	.	.	.	.	.	.	A	.	.
8r	.	.	.	.	.	.	.	.	.	.	.
8b-	Don't	.	.	.	.	.	.	.	.	.	.
=25	=25	=25	=25	=25	=25	=25	=25	=25	=25	=25	=25
8b-	want	1r	.	1r	.	1E-m	.	voice	.	41.605	E-:min
8b-	to	.	.	.	.	.	.	.	.	.	.
8b-	see	.	.	.	.	.	.	.	.	.	.
8b-	your	.	.	.	.	.	.	.	.	.	.
8b-	face	.	.	.	.	.	.	.	.	.	.
8b-	you	.	.	.	.	.	.	.	.	.	.
8a-	bet-	.	.	.	.	.	.	.	.	.	.
8g-	-ter	.	.	.	.	.	.	.	.	.	.
=26	=26	=26	=26	=26	=26	=26	=26	=26	=26	=26	=26
8a-	dis-	1r	.	1r	.	1D-M	.	voice	.	43.266	D-:maj
8g-	-a-	.	.	.	.	.	.	.	.	.	.
4b-	-ppear	.	.	.	.	.	.	.	A	.	.
4r	.	.	.	.	.	.	.	.	.	.	.
8r	.	.	.	.	.	.	.	.	.	.	.
8b-	The	.	.	.	.	.	.	.	.	.	.
=27	=27	=27	=27	=27	=27	=27	=27	=27	=27	=27	=27
8a-	fi-	1r	.	1r	.	1C-M	newline	voice	.	44.926	C-:maj
8g-	-re's	.	.	.	.	.	.	.	.	.	.
8e-	in	.	.	.	.	.	.	.	.	.	.
8d-	their	.	.	.	.	.	.	.	.	.	.
4e-	eyes	.	.	.	.	.	.	.	.	.	.
8d-	and	.	.	.	.	.	.	.	.	.	.
8e-	their	.	.	.	.	.	.	.	.	.	.
=28	=28	=28	=28	=28	=28	=28	=28	=28	=28	=28	=28
8f	words	2r	.	1r	.	1D-M	.	voice	.	46.659	D-:maj
8e-	are	.	.	.	.	.	.	.	.	.	.
8d-	rea-	.	.	.	.	.	.	.	.	.	.
8B-	-lly	.	.	.	.	.	.	.	.	.	.
4d-	clear	4r	.	.	.	.	.	.	A	.	.
4e-	So	4e-	So	.	.	.	.	.	.	.	.
=29	=29	=29	=29	=29	=29	=29	=29	=29	=29	=29	=29
8g-	beat	8g-	beat	1r	.	1E-m	.	voice	B	48.392	E-:min
8e-	it	8e-	it	.	.	.	.	.	.	.	.
4r	.	4r	.	.	.	.	.	.	.	.	.
4r	.	4r	.	.	.	.	.	.	.	.	.
4e-	Just	4e-	Just	.	.	.	.	.	.	.	.
=30	=30	=30	=30	=30	=30	=30	=30	=30	=30	=30	=30
8f	beat	8f	beat	1r	.	1D-M	.	voice	B	50.125	D-:maj
8d-	it	8d-	it	.	.	.	.	.	.	.	.
4r	.	4r	.	.	.	.	.	.	.	.	.
2r	.	2r	.	.	.	.	.	.	.	.	.
=31	=31	=31	=31	=31	=31	=31	=31	=31	=31	=31	=31
8r	.	1r	.	1r	.	1E-m	newline	voice	.	51.858	E-:min
8b-	You	.	.	.	.	.	.	.	.	.	.
8a-	bet-	.	.	.	.	.	.	.	.	.	.
8b-	-ter	.	.	.	.	.	.	.	.	.	.
8b-	run	.	.	.	.	.	.	.	.	.	.
8b-	you	.	.	.	.	.	.	.	.	.	.
8a-	bet-	.	.	.	.	.	.	.	.	.	.
8b-	-ter	.	.	.	.	.	.	.	.	.	.
=32	=32	=32	=32	=32	=32	=32	=32	=32	=32	=32	=32
8dd-	do	1r	.	1r	.	1D-M	.	voice	.	53.586	D-:maj
8b-	what	.	.	.	.	.	.	.	.	.	.
4a-	you	.	.	.	.	.	.	.	.	.	.
4b-	can	.	.	.	.	.	.	.	C	.	.
8r	.	.	.	.	.	.	.	.	.	.	.
8b-	Don't	.	.	.	.	.	.	.	.	.	.
=33	=33	=33	=33	=33	=33	=33	=33	=33	=33	=33	=33
8b-	want	1r	.	1r	.	1E-m	.	voice	.	55.314	E-:min
8b-	to	.	.	.	.	.	.	.	.	.	.
8b-	see	.	.	.	.	.	.	.	.	.	.
8b-	no	.	.	.	.	.	.	.	.	.	.
8a-	blood	.	.	.	.	.	.	.	.	.	.
8b-	don't	.	.	.	.	.	.	.	.	.	.
8a-	be	.	.	.	.	.	.	.	.	.	.
8g-	a	.	.	.	.	.	.	.	.	.	.
=34	=34	=34	=34	=34	=34	=34	=34	=34	=34	=34	=34
8a-	ma-	1r	.	1r	.	1D-M	.	voice	.	57.042	D-:maj
8g-	-cho	.	.	.	.	.	.	.	.	.	.
4b-	man	.	.	.	.	.	.	.	C	.	.
4r	.	.	.	.	.	.	.	.	.	.	.
8r	.	.	.	.	.	.	.	.	.	.	.
8b-	You	.	.	.	.	.	.	.	.	.	.
=35	=35	=35	=35	=35	=35	=35	=35	=35	=35	=35	=35
8a-	want	1r	.	1r	.	1C-M	newline	voice	.	58.77	C-:maj
8g-	to	.	.	.	.	.	.	.	.	.	.
4e-	be	.	.	.	.	.	.	.	.	.	.
8e-	tough	.	.	.	.	.	.	.	.	.	.
8r	.	.	.	.	.	.	.	.	.	.	.
8d-	bet-	.	.	.	.	.	.	.	.	.	.
8e-	-ter	.	.	.	.	.	.	.	.	.	.
=36	=36	=36	=36	=36	=36	=36	=36	=36	=36	=36	=36
8f	do	2r	.	1r	.	1D-M	.	voice	.	60.545	D-:maj
8e-	what	.	.	.	.	.	.	.	.	.	.
4d-	you	.	.	.	.	.	.	.	.	.	.
4d-	can	4r	.	.	.	.	.	.	C	.	.
4e-	So	4e-	So	.	.	.	.	.	.	.	.
=37	=37	=37	=37	=37	=37	=37	=37	=37	=37	=37	=37
8g-	beat	8g-	beat	1r	.	1E-m	.	voice	B	62.319	E-:min
8e-	it	8e-	it	.	.	.	.	.	.	.	.
4r	.	4r	.	.	.	.	.	.	.	.	.
4r	.	2r	.	.	.	.	.	.	.	.	.
8b-	but	.	.	.	.	.	.	.	.	.	.
8b-	you	.	.	.	.	.	.	.	.	.	.
=38	=38	=38	=38	=38	=38	=38	=38	=38	=38	=38	=38
8dd-	want	1r	.	1r	.	1D-M	.	voice	.	64.094	D-:maj
8b-	to	.	.	.	.	.	.	.	.	.	.
4a-	be	.	.	.	.	.	.	.	.	.	.
4b-	bad	.	.	.	.	.	.	.	.	.	.
4a-	Just	.	.	.	.	.	.	.	.	.	.
=39	=39	=39	=39	=39	=39	=39	=39	=39	=39	=39	=39
*>Letter>B	*>Letter>B	*>Letter>B	*>Letter>B	*>Letter>B	*>Letter>B	*>Letter>B	*>Letter>B	*>Letter>B	*>Letter>B	*>Letter>B	*>Letter>B
*>Label>Chorus	*>Label>Chorus	*>Label>Chorus	*>Label>Chorus	*>Label>Chorus	*>Label>Chorus	*>Label>Chorus	*>Label>Chorus	*>Label>Chorus	*>Label>Chorus	*>Label>Chorus	*>Label>Chorus
8b-	beat	2r	.	1r	.	1E-m	newline	voice	.	65.869	E-:min
4.b-	it	.	.	.	.	.	.	.	.	.	.
2r	.	8e- 8g-	Beat	.	.	.	.	.	.	.	.
.	.	4.e- 4.g-	it	.	.	.	.	.	.	.	.
=40	=40	=40	=40	=40	=40	=40	=40	=40	=40	=40	=40
8b-	Beat	2r	.	1r	.	1D-M	.	voice	B	67.548	D-:maj
4.b-	it	.	.	.	.	.	.	.	.	.	.
4r	.	8d- 8f	Beat	.	.	.	.	.	B	.	.
.	.	8d- 8f	it	.	.	.	.	.	.	.	.
8r	.	8r	.	.	.	.	.	.	.	.	.
[8b-	No	[8e- [8g-	No	.	.	.	.	.	.	.	.
=41	=41	=41	=41	=41	=41	=41	=41	=41	=41	=41	=41
8b-]	_	8e-] 8g-]	_	1r	.	1E-m	.	voice	.	69.227	E-:min
8b-	one	8e- 8g-	one	.	.	.	.	.	.	.	.
8b-	wants	8e- 8g-	wants	.	.	.	.	.	.	.	.
8b-	to	8e- 8g-	to	.	.	.	.	.	.	.	.
4dd-	be	4g- 4b-	be	.	.	.	.	.	B	.	.
8b-	de-	8e- 8g-	de-	.	.	.	.	.	b	.	.
[8dd-	-feat	[8f [8a-	-feat-	.	.	.	.	.	B	.	.
=42	=42	=42	=42	=42	=42	=42	=42	=42	=42	=42	=42
8dd-]	_	8f] 8a-]	_	1r	.	1D-M	.	voice	.	70.907	D-:maj
8dd-	ed	8f 8a-	-ed	.	.	.	.	.	.	.	.
4r	.	4r	.	.	.	.	.	.	.	.	.
4r	.	2r	.	.	.	.	.	.	.	.	.
8r	.	.	.	.	.	.	.	.	.	.	.
[8a-	Show	.	.	.	.	.	.	.	.	.	.
=43	=43	=43	=43	=43	=43	=43	=43	=43	=43	=43	=43
8a-]	_	1r	.	1r	.	1E-m	newline	voice	.	72.586	E-:min
8g-	in'	.	.	.	.	.	.	.	.	.	.
8a-	how	.	.	.	.	.	.	.	.	.	.
8r	.	.	.	.	.	.	.	.	.	.	.
8g-	fun-	.	.	.	.	.	.	.	.	.	.
8a-	-ky	.	.	.	.	.	.	.	b	.	.
8r	.	.	.	.	.	.	.	.	.	.	.
[8a-	strong	.	.	.	.	.	.	.	.	.	.
=44	=44	=44	=44	=44	=44	=44	=44	=44	=44	=44	=44
8a-]	_	1r	.	1r	.	1D-M	.	voice	.	74.312	D-:maj
8g-	is	.	.	.	.	.	.	.	.	.	.
8a-	your	.	.	.	.	.	.	.	.	.	.
8r	.	.	.	.	.	.	.	.	.	.	.
8g-	fight	.	.	.	.	.	.	.	D	.	.
8r	.	.	.	.	.	.	.	.	.	.	.
8r	.	.	.	.	.	.	.	.	.	.	.
[8a-	It	.	.	.	.	.	.	.	.	.	.
=45	=45	=45	=45	=45	=45	=45	=45	=45	=45	=45	=45
8a-]	_	1r	.	1r	.	1E-m	.	voice	.	76.039	E-:min
8g-	does-	.	.	.	.	.	.	.	.	.	.
8a-	-n't	.	.	.	.	.	.	.	.	.	.
8r	.	.	.	.	.	.	.	.	.	.	.
8g-	mat-	.	.	.	.	.	.	.	.	.	.
8a-	-ter	.	.	.	.	.	.	.	.	.	.
8r	.	.	.	.	.	.	.	.	.	.	.
[8a-	who's	.	.	.	.	.	.	.	.	.	.
=46	=46	=46	=46	=46	=46	=46	=46	=46	=46	=46	=46
8a-]	_	1r	.	1r	.	1D-M	.	voice	.	77.765	D-:maj
8g-	wrong	.	.	.	.	.	.	.	.	.	.
8a-	or	.	.	.	.	.	.	.	.	.	.
8r	.	.	.	.	.	.	.	.	.	.	.
8g-	right	.	.	.	.	.	.	.	D	.	.
8r	.	.	.	.	.	.	.	.	.	.	.
4a-	Just	.	.	.	.	.	.	.	.	.	.
=47	=47	=47	=47	=47	=47	=47	=47	=47	=47	=47	=47
8g-	beat	2r	.	2r	.	1E-m	newline	voice	B	79.491	E-:min
8e-	it	.	.	.	.	.	.	.	.	.	.
4r	.	.	.	.	.	.	.	.	.	.	.
4r	.	8g-	Beat	8E-	Beat	.	.	.	B	.	.
.	.	8e-	it	8E-	it	.	.	.	.	.	.
8e-	Just	4r	.	4r	.	.	.	.	.	.	.
8r	.	.	.	.	.	.	.	.	.	.	.
=48	=48	=48	=48	=48	=48	=48	=48	=48	=48	=48	=48
8f	beat	4r	.	1r	.	1D-M	.	voice	B	81.221	D-:maj
8d-	it	.	.	.	.	.	.	.	.	.	.
4r	.	8a-	beat	.	.	.	.	.	B	.	.
.	.	8f	it	.	.	.	.	.	.	.	.
4r	.	2r	.	.	.	.	.	.	.	.	.
4a-	Just	.	.	.	.	.	.	.	.	.	.
=49	=49	=49	=49	=49	=49	=49	=49	=49	=49	=49	=49
8g-	beat	2r	.	2r	.	1E-m	.	voice	B	82.951	E-:min
8e-	it	.	.	.	.	.	.	.	.	.	.
4r	.	.	.	.	.	.	.	.	.	.	.
4r	.	8g-	Beat	8E-	Beat	.	.	.	B	.	.
.	.	8e-	it	8E-	it	.	.	.	.	.	.
8e-	Just	4r	.	4r	.	.	.	.	.	.	.
8r	.	.	.	.	.	.	.	.	.	.	.
=50	=50	=50	=50	=50	=50	=50	=50	=50	=50	=50	=50
8f	beat	4r	.	1r	.	1D-M	.	voice	B	84.681	D-:maj
8d-	it	.	.	.	.	.	.	.	.	.	.
4r	.	8a-	Beat	.	.	.	.	.	B	.	.
.	.	8f	it	.	.	.	.	.	.	.	.
2r	.	2r	.	.	.	.	.	.	.	.	.
=51	=51	=51	=51	=51	=51	=51	=51	=51	=51	=51	=51
*>Letter>C	*>Letter>C	*>Letter>C	*>Letter>C	*>Letter>C	*>Letter>C	*>Letter>C	*>Letter>C	*>Letter>C	*>Letter>C	*>Letter>C	*>Letter>C
*>Label>Verse	*>Label>Verse	*>Label>Verse	*>Label>Verse	*>Label>Verse	*>Label>Verse	*>Label>Verse	*>Label>Verse	*>Label>Verse	*>Label>Verse	*>Label>Verse	*>Label>Verse
8r	.	1r	.	1r	.	1E-m	newline	voice	.	86.411	E-:min
8b-	They're	.	.	.	.	.	.	.	.	.	.
8a-	out	.	.	.	.	.	.	.	.	.	.
8b-	to	.	.	.	.	.	.	.	.	.	.
8a-	get	.	.	.	.	.	.	.	.	.	.
8b-	you	.	.	.	.	.	.	.	.	.	.
8a-	bet-	.	.	.	.	.	.	.	.	.	.
8b-	-ter	.	.	.	.	.	.	.	.	.	.
=52	=52	=52	=52	=52	=52	=52	=52	=52	=52	=52	=52
8dd-	leave	1r	.	1r	.	1D-M	.	voice	.	88.159	D-:maj
8b-	while	.	.	.	.	.	.	.	.	.	.
4a-	you	.	.	.	.	.	.	.	.	.	.
4b-	can	.	.	.	.	.	.	.	C	.	.
8r	.	.	.	.	.	.	.	.	.	.	.
8b-	Don't	.	.	.	.	.	.	.	.	.	.
=53	=53	=53	=53	=53	=53	=53	=53	=53	=53	=53	=53
8b-	want	1r	.	1r	.	1E-m	.	voice	.	89.907	E-:min
8b-	to	.	.	.	.	.	.	.	.	.	.
8b-	be	.	.	.	.	.	.	.	.	.	.
8b-	a	.	.	.	.	.	.	.	.	.	.
8a-	boy	.	.	.	.	.	.	.	.	.	.
8b-	you	.	.	.	.	.	.	.	.	.	.
8a-	want	.	.	.	.	.	.	.	.	.	.
8g-	to	.	.	.	.	.	.	.	.	.	.
=54	=54	=54	=54	=54	=54	=54	=54	=54	=54	=54	=54
8a-	be	1r	.	1r	.	1D-M	.	voice	.	91.655	D-:maj
8g-	a	.	.	.	.	.	.	.	.	.	.
4b-	man	.	.	.	.	.	.	.	C	.	.
4r	.	.	.	.	.	.	.	.	.	.	.
8r	.	.	.	.	.	.	.	.	.	.	.
8b-	You	.	.	.	.	.	.	.	.	.	.
=55	=55	=55	=55	=55	=55	=55	=55	=55	=55	=55	=55
8a-	want	1r	.	1r	.	1C-M	newline	voice	.	93.403	C-:maj
8g-	to	.	.	.	.	.	.	.	.	.	.
8e-	stay	.	.	.	.	.	.	.	.	.	.
8d-	a-	.	.	.	.	.	.	.	.	.	.
8e-	-live	.	.	.	.	.	.	.	.	.	.
8r	.	.	.	.	.	.	.	.	.	.	.
8d-	bet-	.	.	.	.	.	.	.	.	.	.
8e-	-ter	.	.	.	.	.	.	.	.	.	.
=56	=56	=56	=56	=56	=56	=56	=56	=56	=56	=56	=56
8f	do	1r	.	1r	.	1D-M	.	voice	.	95.109	D-:maj
8e-	what	.	.	.	.	.	.	.	.	.	.
4d-	you	.	.	.	.	.	.	.	.	.	.
8d-	can	.	.	.	.	.	.	.	C	.	.
8r	.	.	.	.	.	.	.	.	.	.	.
4e-	So	.	.	.	.	.	.	.	.	.	.
=57	=57	=57	=57	=57	=57	=57	=57	=57	=57	=57	=57
8g-	beat	1r	.	1r	.	1E-m	.	voice	B	96.815	E-:min
8e-	it	.	.	.	.	.	.	.	.	.	.
4r	.	.	.	.	.	.	.	.	.	.	.
4r	.	.	.	.	.	.	.	.	.	.	.
4e-	Just	.	.	.	.	.	.	.	.	.	.
=58	=58	=58	=58	=58	=58	=58	=58	=58	=58	=58	=58
8f	beat	1r	.	1r	.	1D-M	.	voice	B	98.522	D-:maj
8d-	it	.	.	.	.	.	.	.	.	.	.
4r	.	.	.	.	.	.	.	.	.	.	.
2r	.	.	.	.	.	.	.	.	.	.	.
=59	=59	=59	=59	=59	=59	=59	=59	=59	=59	=59	=59
8r	.	1r	.	1r	.	1E-m	newline	voice	.	100.228	E-:min
8b-	You	.	.	.	.	.	.	.	.	.	.
8a-	have	.	.	.	.	.	.	.	.	.	.
8b-	to	.	.	.	.	.	.	.	.	.	.
8a-	show	.	.	.	.	.	.	.	.	.	.
8b-	them	.	.	.	.	.	.	.	.	.	.
8a-	that	.	.	.	.	.	.	.	.	.	.
8b-	you're	.	.	.	.	.	.	.	.	.	.
=60	=60	=60	=60	=60	=60	=60	=60	=60	=60	=60	=60
8dd-	rea-	1r	.	1r	.	1D-M	.	voice	.	101.949	D-:maj
8b-	-lly	.	.	.	.	.	.	.	.	.	.
4a-	not	.	.	.	.	.	.	.	.	.	.
4b-	scared	.	.	.	.	.	.	.	E	.	.
8r	.	.	.	.	.	.	.	.	.	.	.
8b-	You're	.	.	.	.	.	.	.	.	.	.
=61	=61	=61	=61	=61	=61	=61	=61	=61	=61	=61	=61
8b-	play-	1r	.	1r	.	1E-m	.	voice	.	103.671	E-:min
8b-	-in'	.	.	.	.	.	.	.	.	.	.
8b-	with	.	.	.	.	.	.	.	.	.	.
8b-	your	.	.	.	.	.	.	.	.	.	.
8a-	life	.	.	.	.	.	.	.	.	.	.
8b-	this	.	.	.	.	.	.	.	.	.	.
8a-	ain't	.	.	.	.	.	.	.	.	.	.
8g-	no	.	.	.	.	.	.	.	.	.	.
=62	=62	=62	=62	=62	=62	=62	=62	=62	=62	=62	=62
8a-	truth	1r	.	1r	.	1D-M	.	voice	.	105.393	D-:maj
8g-	or	.	.	.	.	.	.	.	.	.	.
4b-	dare	.	.	.	.	.	.	.	E	.	.
4r	.	.	.	.	.	.	.	.	.	.	.
8r	.	.	.	.	.	.	.	.	.	.	.
8b-	They'll	.	.	.	.	.	.	.	.	.	.
=63	=63	=63	=63	=63	=63	=63	=63	=63	=63	=63	=63
8a-	kick	1r	.	1r	.	1C-M	newline	voice	.	107.115	C-:maj
8g-	you	.	.	.	.	.	.	.	.	.	.
8d-	then	.	.	.	.	.	.	.	.	.	.
8e-	they	.	.	.	.	.	.	.	.	.	.
8g-	beat	.	.	.	.	.	.	.	.	.	.
8e-	you	.	.	.	.	.	.	.	.	.	.
8d-	then	.	.	.	.	.	.	.	.	.	.
8e-	they'll	.	.	.	.	.	.	.	.	.	.
=64	=64	=64	=64	=64	=64	=64	=64	=64	=64	=64	=64
8f	tell	2r	.	1r	.	1D-M	.	voice	.	108.844	D-:maj
8e-	you	.	.	.	.	.	.	.	.	.	.
4d-	it's	.	.	.	.	.	.	.	.	.	.
4d-	fair	4r	.	.	.	.	.	.	E	.	.
4e-	So	4e-	So	.	.	.	.	.	.	.	.
=65	=65	=65	=65	=65	=65	=65	=65	=65	=65	=65	=65
8g-	beat	8g-	beat	1r	.	1E-m	.	voice	B	110.573	E-:min
8e-	it	8e-	it	.	.	.	.	.	.	.	.
4r	.	4r	.	.	.	.	.	.	.	.	.
4r	.	2r	.	.	.	.	.	.	.	.	.
8b-	But	.	.	.	.	.	.	.	.	.	.
8b-	you	.	.	.	.	.	.	.	.	.	.
=66	=66	=66	=66	=66	=66	=66	=66	=66	=66	=66	=66
8dd-	wan-	1r	.	1r	.	1D-M	.	voice	.	112.302	D-:maj
8b-	-na	.	.	.	.	.	.	.	.	.	.
4a-	be	.	.	.	.	.	.	.	.	.	.
4b-	bad	.	.	.	.	.	.	.	C	.	.
4a-	Just	.	.	.	.	.	.	.	.	.	.
=67	=67	=67	=67	=67	=67	=67	=67	=67	=67	=67	=67
*>Letter>B	*>Letter>B	*>Letter>B	*>Letter>B	*>Letter>B	*>Letter>B	*>Letter>B	*>Letter>B	*>Letter>B	*>Letter>B	*>Letter>B	*>Letter>B
*>Label>Chorus	*>Label>Chorus	*>Label>Chorus	*>Label>Chorus	*>Label>Chorus	*>Label>Chorus	*>Label>Chorus	*>Label>Chorus	*>Label>Chorus	*>Label>Chorus	*>Label>Chorus	*>Label>Chorus
8b-	beat	2r	.	1r	.	1E-m	newline	voice	B	114.03	E-:min
4.b-	it	.	.	.	.	.	.	.	.	.	.
2r	.	8e- 8g-	Beat	.	.	.	.	.	B	.	.
.	.	4.e- 4.g-	it	.	.	.	.	.	.	.	.
=68	=68	=68	=68	=68	=68	=68	=68	=68	=68	=68	=68
8b-	Beat	2r	.	1r	.	1D-M	.	voice	B	115.752	D-:maj
4.b-	it	.	.	.	.	.	.	.	.	.	.
4r	.	8d- 8f	Beat	.	.	.	.	.	B	.	.
.	.	8d- 8f	it	.	.	.	.	.	.	.	.
8r	.	8r	.	.	.	.	.	.	.	.	.
[8b-	No	[8e- [8g-	No	.	.	.	.	.	.	.	.
=69	=69	=69	=69	=69	=69	=69	=69	=69	=69	=69	=69
8b-]	_	8e-] 8g-]	_	1r	.	1E-m	.	voice	.	117.474	E-:min
8b-	one	8e- 8g-	one	.	.	.	.	.	.	.	.
8b-	wants	8e- 8g-	wants	.	.	.	.	.	.	.	.
8b-	to	8e- 8g-	to	.	.	.	.	.	.	.	.
4dd-	be	4g- 4b-	be	.	.	.	.	.	B	.	.
8b-	de-	8e- 8g-	de-	.	.	.	.	.	b	.	.
[8dd-	-feat	[8f [8a-	-feat-	.	.	.	.	.	B	.	.
=70	=70	=70	=70	=70	=70	=70	=70	=70	=70	=70	=70
8dd-]	_	8f] 8a-]	_	1r	.	1D-M	.	voice	.	119.196	D-:maj
8dd-	ed	8f 8a-	-ed	.	.	.	.	.	.	.	.
4r	.	4r	.	.	.	.	.	.	.	.	.
4r	.	2r	.	.	.	.	.	.	.	.	.
8r	.	.	.	.	.	.	.	.	.	.	.
[8a-	Show	.	.	.	.	.	.	.	.	.	.
=71	=71	=71	=71	=71	=71	=71	=71	=71	=71	=71	=71
8a-]	_	1r	.	1r	.	1E-m	newline	voice	.	120.918	E-:min
8g-	in'	.	.	.	.	.	.	.	.	.	.
8a-	how	.	.	.	.	.	.	.	.	.	.
8r	.	.	.	.	.	.	.	.	.	.	.
8g-	fun-	.	.	.	.	.	.	.	.	.	.
8a-	-ky	.	.	.	.	.	.	.	b	.	.
8r	.	.	.	.	.	.	.	.	.	.	.
[8a-	strong	.	.	.	.	.	.	.	.	.	.
=72	=72	=72	=72	=72	=72	=72	=72	=72	=72	=72	=72
8a-]	_	1r	.	1r	.	1D-M	.	voice	.	122.648	D-:maj
8g-	is	.	.	.	.	.	.	.	.	.	.
8a-	your	.	.	.	.	.	.	.	.	.	.
8r	.	.	.	.	.	.	.	.	.	.	.
8g-	fight	.	.	.	.	.	.	.	D	.	.
8r	.	.	.	.	.	.	.	.	.	.	.
8r	.	.	.	.	.	.	.	.	.	.	.
[8a-	It	.	.	.	.	.	.	.	.	.	.
=73	=73	=73	=73	=73	=73	=73	=73	=73	=73	=73	=73
8a-]	_	1r	.	1r	.	1E-m	.	voice	.	124.378	E-:min
8g-	does-	.	.	.	.	.	.	.	.	.	.
8a-	-n't	.	.	.	.	.	.	.	.	.	.
8r	.	.	.	.	.	.	.	.	.	.	.
8g-	mat-	.	.	.	.	.	.	.	.	.	.
8a-	-ter	.	.	.	.	.	.	.	.	.	.
8r	.	.	.	.	.	.	.	.	.	.	.
[8a-	who's	.	.	.	.	.	.	.	.	.	.
=74	=74	=74	=74	=74	=74	=74	=74	=74	=74	=74	=74
8a-]	_	1r	.	1r	.	1D-M	.	voice	.	126.107	D-:maj
8g-	wrong	.	.	.	.	.	.	.	.	.	.
8a-	or	.	.	.	.	.	.	.	.	.	.
8r	.	.	.	.	.	.	.	.	.	.	.
8g-	right	.	.	.	.	.	.	.	D	.	.
8r	.	.	.	.	.	.	.	.	.	.	.
4a-	Just	.	.	.	.	.	.	.	.	.	.
=75	=75	=75	=75	=75	=75	=75	=75	=75	=75	=75	=75
8b-	beat	2r	.	1r	.	1E-m	newline	voice	B	127.837	E-:min
4.b-	it	.	.	.	.	.	.	.	.	.	.
2r	.	8e- 8g-	Beat	.	.	.	.	.	B	.	.
.	.	4.e- 4.g-	it	.	.	.	.	.	.	.	.
=76	=76	=76	=76	=76	=76	=76	=76	=76	=76	=76	=76
8b-	Beat	2r	.	1r	.	1D-M	.	voice	B	129.585	D-:maj
4.b-	it	.	.	.	.	.	.	.	.	.	.
4r	.	8d- 8f	Beat	.	.	.	.	.	B	.	.
.	.	8d- 8f	it	.	.	.	.	.	.	.	.
8r	.	8r	.	.	.	.	.	.	.	.	.
[8b-	No	[8e- [8g-	No	.	.	.	.	.	.	.	.
=77	=77	=77	=77	=77	=77	=77	=77	=77	=77	=77	=77
8b-]	_	8e-] 8g-]	_	1r	.	1E-m	.	voice	.	131.333	E-:min
8b-	one	8e- 8g-	one	.	.	.	.	.	.	.	.
8b-	wants	8e- 8g-	wants	.	.	.	.	.	.	.	.
8b-	to	8e- 8g-	to	.	.	.	.	.	.	.	.
4dd-	be	4g- 4b-	be	.	.	.	.	.	B	.	.
8b-	de-	8e- 8g-	de-	.	.	.	.	.	b	.	.
[8dd-	-feat	[8f [8a-	-feat-	.	.	.	.	.	B	.	.
=78	=78	=78	=78	=78	=78	=78	=78	=78	=78	=78	=78
8dd-]	_	8f] 8a-]	_	1r	.	1D-M	.	voice	.	133.081	D-:maj
8dd-	ed	8f 8a-	-ed	.	.	.	.	.	.	.	.
4r	.	4r	.	.	.	.	.	.	.	.	.
4r	.	2r	.	.	.	.	.	.	.	.	.
8r	.	.	.	.	.	.	.	.	.	.	.
[8a-	Show	.	.	.	.	.	.	.	.	.	.
=79	=79	=79	=79	=79	=79	=79	=79	=79	=79	=79	=79
8a-]	_	1r	.	1r	.	1E-m	newline	voice	.	134.828	E-:min
8g-	in'	.	.	.	.	.	.	.	.	.	.
8a-	how	.	.	.	.	.	.	.	.	.	.
8r	.	.	.	.	.	.	.	.	.	.	.
8g-	fun-	.	.	.	.	.	.	.	.	.	.
8a-	-ky	.	.	.	.	.	.	.	b	.	.
8r	.	.	.	.	.	.	.	.	.	.	.
[8a-	strong	.	.	.	.	.	.	.	.	.	.
=80	=80	=80	=80	=80	=80	=80	=80	=80	=80	=80	=80
8a-]	_	1r	.	1r	.	1D-M	.	voice	.	136.533	D-:maj
8g-	is	.	.	.	.	.	.	.	.	.	.
8a-	your	.	.	.	.	.	.	.	.	.	.
8r	.	.	.	.	.	.	.	.	.	.	.
8g-	fight	.	.	.	.	.	.	.	D	.	.
8r	.	.	.	.	.	.	.	.	.	.	.
8r	.	.	.	.	.	.	.	.	.	.	.
[8a-	It	.	.	.	.	.	.	.	.	.	.
=81	=81	=81	=81	=81	=81	=81	=81	=81	=81	=81	=81
8a-]	_	1r	.	1r	.	1E-m	.	voice	.	138.238	E-:min
8g-	does-	.	.	.	.	.	.	.	.	.	.
8a-	-n't	.	.	.	.	.	.	.	.	.	.
8r	.	.	.	.	.	.	.	.	.	.	.
8g-	mat-	.	.	.	.	.	.	.	.	.	.
8a-	-ter	.	.	.	.	.	.	.	.	.	.
8r	.	.	.	.	.	.	.	.	.	.	.
[8a-	who's	.	.	.	.	.	.	.	.	.	.
=82	=82	=82	=82	=82	=82	=82	=82	=82	=82	=82	=82
8a-]	_	1r	.	1r	.	1D-M	.	voice	.	139.943	D-:maj
8g-	wrong	.	.	.	.	.	.	.	.	.	.
8a-	or	.	.	.	.	.	.	.	.	.	.
8r	.	.	.	.	.	.	.	.	.	.	.
8g-	right	.	.	.	.	.	.	.	D	.	.
8r	.	.	.	.	.	.	.	.	.	.	.
4a-	Just	.	.	.	.	.	.	.	.	.	.
=83	=83	=83	=83	=83	=83	=83	=83	=83	=83	=83	=83
*>Letter>D	*>Letter>D	*>Letter>D	*>Letter>D	*>Letter>D	*>Letter>D	*>Letter>D	*>Letter>D	*>Letter>D	*>Letter>D	*>Letter>D	*>Letter>D
*>Label>Instrumental	*>Label>Instrumental	*>Label>Instrumental	*>Label>Instrumental	*>Label>Instrumental	*>Label>Instrumental	*>Label>Instrumental	*>Label>Instrumental	*>Label>Instrumental	*>Label>Instrumental	*>Label>Instrumental	*>Label>Instrumental
8g-	Beat	1r	.	1r	.	1E-m	newline	voice	.	141.648	E-:min
8e-	it	.	.	.	.	.	.	.	.	.	.
8g-	Beat	.	.	.	.	.	.	.	.	.	.
8e-	it	.	.	.	.	.	.	.	.	.	.
8g-	Beat	.	.	.	.	.	.	.	.	.	.
8e-	it	.	.	.	.	.	.	.	.	.	.
8g-	Beat	.	.	.	.	.	.	.	.	.	.
8e-	it	.	.	.	.	.	.	.	.	.	.
=84	=84	=84	=84	=84	=84	=84	=84	=84	=84	=84	=84
2r	.	1r	.	1r	.	1E-m	.	voice	.	143.379	E-:min
8g-	Beat	.	.	.	.	.	.	.	.	.	.
8e-	it	.	.	.	.	.	.	.	.	.	.
8g-	Beat	.	.	.	.	.	.	.	.	.	.
8e-	it	.	.	.	.	.	.	.	.	.	.
=85	=85	=85	=85	=85	=85	=85	=85	=85	=85	=85	=85
1r	.	1r	.	1r	.	1E-m	.	voice	.	145.11	E-:min
=86	=86	=86	=86	=86	=86	=86	=86	=86	=86	=86	=86
1r	.	1r	.	1r	.	1E-m	.	voice	.	146.841	E-:min
=87	=87	=87	=87	=87	=87	=87	=87	=87	=87	=87	=87
1r	.	1r	.	1r	.	1E-m	newline	voice	.	148.573	E-:min
=88	=88	=88	=88	=88	=88	=88	=88	=88	=88	=88	=88
2r	.	1r	.	1r	.	1E-m	.	voice	.	150.295	E-:min
8g-	Beat	.	.	.	.	.	.	.	.	.	.
8e-	it	.	.	.	.	.	.	.	.	.	.
8g-	Beat	.	.	.	.	.	.	.	.	.	.
8e-	it	.	.	.	.	.	.	.	.	.	.
=89	=89	=89	=89	=89	=89	=89	=89	=89	=89	=89	=89
1r	.	1r	.	1r	.	1E-m	.	voice	.	152.018	E-:min
=90	=90	=90	=90	=90	=90	=90	=90	=90	=90	=90	=90
8g-	Beat	1r	.	1r	.	1E-m	.	voice	.	153.741	E-:min
8e-	it	.	.	.	.	.	.	.	.	.	.
8g-	Beat	.	.	.	.	.	.	.	.	.	.
8e-	it	.	.	.	.	.	.	.	.	.	.
2r	.	.	.	.	.	.	.	.	.	.	.
=91	=91	=91	=91	=91	=91	=91	=91	=91	=91	=91	=91
1r	.	1r	.	1r	.	1E-m	newline	voice	.	155.464	E-:min
=92	=92	=92	=92	=92	=92	=92	=92	=92	=92	=92	=92
1r	.	1r	.	1r	.	1E-m	.	voice	.	157.192	E-:min
=93	=93	=93	=93	=93	=93	=93	=93	=93	=93	=93	=93
1r	.	1r	.	1r	.	1E-m	.	voice	.	158.919	E-:min
=94	=94	=94	=94	=94	=94	=94	=94	=94	=94	=94	=94
8g-	Beat	1r	.	1r	.	1E-m	.	voice	.	160.647	E-:min
8e-	it	.	.	.	.	.	.	.	.	.	.
8g-	Beat	.	.	.	.	.	.	.	.	.	.
8e-	it	.	.	.	.	.	.	.	.	.	.
2r	.	.	.	.	.	.	.	.	.	.	.
=95	=95	=95	=95	=95	=95	=95	=95	=95	=95	=95	=95
1r	.	1r	.	1r	.	1E-m	newline	voice	.	162.375	E-:min
=96	=96	=96	=96	=96	=96	=96	=96	=96	=96	=96	=96
1r	.	1r	.	1r	.	1E-m	.	voice	.	164.109	E-:min
=97	=97	=97	=97	=97	=97	=97	=97	=97	=97	=97	=97
1r	.	1r	.	1r	.	1E-m	.	voice	.	165.843	E-:min
=98	=98	=98	=98	=98	=98	=98	=98	=98	=98	=98	=98
1r	.	1r	.	1r	.	1E-m	.	voice	.	167.577	E-:min
=99	=99	=99	=99	=99	=99	=99	=99	=99	=99	=99	=99
*>Letter>C	*>Letter>C	*>Letter>C	*>Letter>C	*>Letter>C	*>Letter>C	*>Letter>C	*>Letter>C	*>Letter>C	*>Letter>C	*>Letter>C	*>Letter>C
*>Label>Solo	*>Label>Solo	*>Label>Solo	*>Label>Solo	*>Label>Solo	*>Label>Solo	*>Label>Solo	*>Label>Solo	*>Label>Solo	*>Label>Solo	*>Label>Solo	*>Label>Solo
1r	.	1r	.	1r	.	1E-m	newline	guitar	.	169.31	E-:min
=100	=100	=100	=100	=100	=100	=100	=100	=100	=100	=100	=100
1r	.	1r	.	1r	.	1D-M	.	guitar	.	171.043	D-:maj
=101	=101	=101	=101	=101	=101	=101	=101	=101	=101	=101	=101
1r	.	1r	.	1r	.	1E-m	.	guitar	.	172.776	E-:min
=102	=102	=102	=102	=102	=102	=102	=102	=102	=102	=102	=102
1r	.	1r	.	1r	.	1D-M	.	guitar	.	174.509	D-:maj
=103	=103	=103	=103	=103	=103	=103	=103	=103	=103	=103	=103
1r	.	1r	.	1r	.	1C-M	newline	guitar	.	176.242	C-:maj
=104	=104	=104	=104	=104	=104	=104	=104	=104	=104	=104	=104
1r	.	1r	.	1r	.	1D-M	.	guitar	.	177.967	D-:maj
=105	=105	=105	=105	=105	=105	=105	=105	=105	=105	=105	=105
1r	.	1r	.	1r	.	1E-m	.	guitar	.	179.692	E-:min
=106	=106	=106	=106	=106	=106	=106	=106	=106	=106	=106	=106
1r	.	1r	.	1r	.	1D-M	.	guitar	.	181.416	D-:maj
=107	=107	=107	=107	=107	=107	=107	=107	=107	=107	=107	=107
1r	.	1r	.	1r	.	1E-m	newline	guitar	.	183.141	E-:min
=108	=108	=108	=108	=108	=108	=108	=108	=108	=108	=108	=108
1r	.	1r	.	1r	.	1D-M	.	guitar	.	184.864	D-:maj
=109	=109	=109	=109	=109	=109	=109	=109	=109	=109	=109	=109
1r	.	1r	.	1r	.	1E-m	.	guitar	.	186.587	E-:min
=110	=110	=110	=110	=110	=110	=110	=110	=110	=110	=110	=110
1r	.	1r	.	1r	.	1D-M	.	guitar	.	188.309	D-:maj
=111	=111	=111	=111	=111	=111	=111	=111	=111	=111	=111	=111
1r	.	1r	.	1r	.	1C-M	newline	guitar	.	190.032	C-:maj
=112	=112	=112	=112	=112	=112	=112	=112	=112	=112	=112	=112
1r	.	1r	.	1r	.	1D-M	.	guitar	.	191.76	D-:maj
=113	=113	=113	=113	=113	=113	=113	=113	=113	=113	=113	=113
1r	.	1r	.	1r	.	1E-m	.	guitar	.	193.488	E-:min
=114	=114	=114	=114	=114	=114	=114	=114	=114	=114	=114	=114
1r	.	1r	.	1r	.	1D-M	.	guitar	.	195.216	D-:maj
=115	=115	=115	=115	=115	=115	=115	=115	=115	=115	=115	=115
*>Letter>B	*>Letter>B	*>Letter>B	*>Letter>B	*>Letter>B	*>Letter>B	*>Letter>B	*>Letter>B	*>Letter>B	*>Letter>B	*>Letter>B	*>Letter>B
*>Label>Chorus	*>Label>Chorus	*>Label>Chorus	*>Label>Chorus	*>Label>Chorus	*>Label>Chorus	*>Label>Chorus	*>Label>Chorus	*>Label>Chorus	*>Label>Chorus	*>Label>Chorus	*>Label>Chorus
8b-	beat	2r	.	1r	.	1E-m	newline	voice	B	196.944	E-:min
4.b-	it	.	.	.	.	.	.	.	.	.	.
2r	.	8e- 8g-	Beat	.	.	.	.	.	B	.	.
.	.	4.e- 4.g-	it	.	.	.	.	.	.	.	.
=116	=116	=116	=116	=116	=116	=116	=116	=116	=116	=116	=116
8b-	Beat	2r	.	1r	.	1D-M	.	voice	B	198.686	D-:maj
4.b-	it	.	.	.	.	.	.	.	.	.	.
4r	.	8d- 8f	Beat	.	.	.	.	.	B	.	.
.	.	8d- 8f	it	.	.	.	.	.	.	.	.
8r	.	8r	.	.	.	.	.	.	.	.	.
[8b-	No	[8e- [8g-	No	.	.	.	.	.	.	.	.
=117	=117	=117	=117	=117	=117	=117	=117	=117	=117	=117	=117
8b-]	_	8e-] 8g-]	_	1r	.	1E-m	.	voice	.	200.428	E-:min
8b-	one	8e- 8g-	one	.	.	.	.	.	.	.	.
8b-	wants	8e- 8g-	wants	.	.	.	.	.	.	.	.
8b-	to	8e- 8g-	to	.	.	.	.	.	.	.	.
4dd-	be	4g- 4b-	be	.	.	.	.	.	B	.	.
8b-	de-	8e- 8g-	de-	.	.	.	.	.	b	.	.
[8dd-	-feat	[8f [8a-	-feat-	.	.	.	B	.	.	.	.
=118	=118	=118	=118	=118	=118	=118	=118	=118	=118	=118	=118
8dd-]	_	8f] 8a-]	_	1r	.	1D-M	.	voice	.	202.17	D-:maj
8dd-	ed	8f 8a-	-ed	.	.	.	.	.	.	.	.
4r	.	4r	.	.	.	.	.	.	.	.	.
4r	.	2r	.	.	.	.	.	.	.	.	.
8r	.	.	.	.	.	.	.	.	.	.	.
[8a-	Show	.	.	.	.	.	.	.	.	.	.
=119	=119	=119	=119	=119	=119	=119	=119	=119	=119	=119	=119
8a-]	_	1r	.	1r	.	1E-m	newline	voice	.	203.912	E-:min
8g-	in'	.	.	.	.	.	.	.	.	.	.
8a-	how	.	.	.	.	.	.	.	.	.	.
8r	.	.	.	.	.	.	.	.	.	.	.
8g-	fun-	.	.	.	.	.	.	.	.	.	.
8a-	-ky	.	.	.	.	.	.	.	b	.	.
8r	.	.	.	.	.	.	.	.	.	.	.
[8a-	strong	.	.	.	.	.	.	.	.	.	.
=120	=120	=120	=120	=120	=120	=120	=120	=120	=120	=120	=120
8a-]	_	1r	.	1r	.	1D-M	.	voice	.	205.628	D-:maj
8g-	is	.	.	.	.	.	.	.	.	.	.
8a-	your	.	.	.	.	.	.	.	.	.	.
8r	.	.	.	.	.	.	.	.	.	.	.
8g-	fight	.	.	.	.	.	.	.	D	.	.
8r	.	.	.	.	.	.	.	.	.	.	.
8r	.	.	.	.	.	.	.	.	.	.	.
[8a-	It	.	.	.	.	.	.	.	.	.	.
=121	=121	=121	=121	=121	=121	=121	=121	=121	=121	=121	=121
8a-]	_	1r	.	1r	.	1E-m	.	voice	.	207.344	E-:min
8g-	does-	.	.	.	.	.	.	.	.	.	.
8a-	-n't	.	.	.	.	.	.	.	.	.	.
8r	.	.	.	.	.	.	.	.	.	.	.
8g-	mat-	.	.	.	.	.	.	.	.	.	.
8a-	-ter	.	.	.	.	.	.	.	.	.	.
8r	.	.	.	.	.	.	.	.	.	.	.
[8a-	who's	.	.	.	.	.	.	.	.	.	.
=122	=122	=122	=122	=122	=122	=122	=122	=122	=122	=122	=122
8a-]	_	1r	.	4.r	.	1D-M	.	voice	.	209.06	D-:maj
8g-	wrong	.	.	.	.	.	.	.	.	.	.
8a-	or	.	.	.	.	.	.	.	.	.	.
8r	.	.	.	4.b-	Who's	.	.	.	.	.	.
8g-	right	.	.	.	.	.	.	.	D	.	.
8r	.	.	.	.	.	.	.	.	.	.	.
4a-	Just	.	.	16a-	right	.	.	.	.	.	.
.	.	.	.	8.g-	_	.	.	.	.	.	.
=123	=123	=123	=123	=123	=123	=123	=123	=123	=123	=123	=123
8b-	beat	2r	.	4.r	.	1E-m	newline	voice	B	210.776	E-:min
4.b-	it	.	.	.	.	.	.	.	.	.	.
.	.	.	.	[8aa-	Hoo	.	.	.	.	.	.
2r	.	8e- 8g-	Beat	2aa-]	_	.	.	.	B	.	.
.	.	4.e- 4.g-	it	.	.	.	.	.	.	.	.
=124	=124	=124	=124	=124	=124	=124	=124	=124	=124	=124	=124
8b-	Beat	2r	.	2gg-	hoo	1D-M	.	voice	B	212.498	D-:maj
4.b-	it	.	.	.	.	.	.	.	.	.	.
4r	.	8d- 8f	Beat	2r	.	.	.	.	B	.	.
.	.	8d- 8f	it	.	.	.	.	.	.	.	.
8r	.	8r	.	.	.	.	.	.	.	.	.
[8b-	No	[8e- [8g-	No	.	.	.	.	.	.	.	.
=125	=125	=125	=125	=125	=125	=125	=125	=125	=125	=125	=125
8b-]	_	8e-] 8g-]	_	1r	.	1E-m	.	voice	.	214.219	E-:min
8b-	one	8e- 8g-	one	.	.	.	.	.	.	.	.
8b-	wants	8e- 8g-	wants	.	.	.	.	.	.	.	.
8b-	to	8e- 8g-	to	.	.	.	.	.	.	.	.
4dd-	be	4g- 4b-	be	.	.	.	.	.	B	.	.
8b-	de-	8e- 8g-	de-	.	.	.	.	.	b	.	.
[8dd-	-feat	[8f [8a-	-feat-	.	.	.	.	.	B	.	.
=126	=126	=126	=126	=126	=126	=126	=126	=126	=126	=126	=126
8dd-]	_	8f] 8a-]	_	8r	.	1D-M	.	voice	.	215.941	D-:maj
8dd-	ed	8f 8a-	-ed	4a-	Oh	.	.	.	.	.	.
4r	.	4r	.	.	.	.	.	.	.	.	.
.	.	.	.	8a-	lord	.	.	.	.	.	.
4r	.	2r	.	4g-	_	.	.	.	.	.	.
8r	.	.	.	4r	.	.	.	.	.	.	.
[8a-	Show	.	.	.	.	.	.	.	.	.	.
=127	=127	=127	=127	=127	=127	=127	=127	=127	=127	=127	=127
8a-]	_	1r	.	2r	.	1E-m	newline	voice	.	217.663	E-:min
8g-	in'	.	.	.	.	.	.	.	.	.	.
8a-	how	.	.	.	.	.	.	.	.	.	.
8r	.	.	.	.	.	.	.	.	.	.	.
8g-	fun-	.	.	8r	.	.	.	.	.	.	.
8a-	-ky	.	.	8aa-	Hee	.	.	.	b	.	.
8r	.	.	.	8r	.	.	.	.	.	.	.
[8a-	strong	.	.	[8gg-	hee	.	.	.	.	.	.
=128	=128	=128	=128	=128	=128	=128	=128	=128	=128	=128	=128
8a-]	_	1r	.	8gg-]	_	1D-M	.	voice	.	219.392	D-:maj
8g-	is	.	.	8r	.	.	.	.	.	.	.
8a-	your	.	.	4r	.	.	.	.	.	.	.
8r	.	.	.	.	.	.	.	.	.	.	.
8g-	fight	.	.	4.aa-	Hee	.	.	.	D	.	.
8r	.	.	.	.	.	.	.	.	.	.	.
8r	.	.	.	.	.	.	.	.	.	.	.
[8a-	It	.	.	8gg-	Hee	.	.	.	.	.	.
=129	=129	=129	=129	=129	=129	=129	=129	=129	=129	=129	=129
8a-]	_	1r	.	8r	.	1E-m	.	voice	.	221.121	E-:min
8g-	does-	.	.	8gg-	hee	.	.	.	.	.	.
8a-	-n't	.	.	8aa-	_	.	.	.	.	.	.
8r	.	.	.	8r	.	.	.	.	.	.	.
8g-	mat-	.	.	2r	.	.	.	.	.	.	.
8a-	-ter	.	.	.	.	.	.	.	.	.	.
8r	.	.	.	.	.	.	.	.	.	.	.
[8a-	who's	.	.	.	.	.	.	.	.	.	.
=130	=130	=130	=130	=130	=130	=130	=130	=130	=130	=130	=130
8a-]	_	1r	.	1r	.	1D-M	.	voice	.	222.85	D-:maj
8g-	wrong	.	.	.	.	.	.	.	.	.	.
8a-	or	.	.	.	.	.	.	.	.	.	.
8r	.	.	.	.	.	.	.	.	.	.	.
8g-	right	.	.	.	.	.	.	.	D	.	.
8r	.	.	.	.	.	.	.	.	.	.	.
4a-	Just	.	.	.	.	.	.	.	.	.	.
=131	=131	=131	=131	=131	=131	=131	=131	=131	=131	=131	=131
8b-	beat	2r	.	1r	.	1E-m	newline	voice	B	224.579	E-:min
4.b-	it	.	.	.	.	.	.	.	.	.	.
2r	.	8e- 8g-	Beat	.	.	.	.	.	B	.	.
.	.	4.e- 4.g-	it	.	.	.	.	.	.	.	.
=132	=132	=132	=132	=132	=132	=132	=132	=132	=132	=132	=132
8b-	Beat	2r	.	4.r	.	1D-M	.	voice	B	226.31	D-:maj
4.b-	it	.	.	.	.	.	.	.	.	.	.
.	.	.	.	4b-	Beat	.	.	.	B	.	.
4r	.	8d- 8f	Beat	.	.	.	.	.	.	.	.
.	.	8d- 8f	it	8a-	it	.	.	.	.	.	.
8r	.	8r	.	4g-	_	.	.	.	.	.	.
[8b-	No	[8e- [8g-	No	.	.	.	.	.	.	.	.
=133	=133	=133	=133	=133	=133	=133	=133	=133	=133	=133	=133
8b-]	_	8e-] 8g-]	_	1r	.	1E-m	.	voice	.	228.041	E-:min
8b-	one	8e- 8g-	one	.	.	.	.	.	.	.	.
8b-	wants	8e- 8g-	wants	.	.	.	.	.	.	.	.
8b-	to	8e- 8g-	to	.	.	.	.	.	.	.	.
4dd-	be	4g- 4b-	be	.	.	.	.	.	B	.	.
8b-	de-	8e- 8g-	de-	.	.	.	.	.	b	.	.
[8dd-	-feat	[8f [8a-	-feat-	.	.	.	.	.	B	.	.
=134	=134	=134	=134	=134	=134	=134	=134	=134	=134	=134	=134
8dd-]	_	8f] 8a-]	_	8r	.	1D-M	.	voice	.	229.771	D-:maj
8dd-	ed	8f 8a-	-ed	8B-	Oh	.	.	.	.	.	.
4r	.	4r	.	16A-	no	.	.	.	.	.	.
.	.	.	.	16G-	_	.	.	.	.	.	.
.	.	.	.	4.E-	_	.	.	.	.	.	.
4r	.	2r	.	.	.	.	.	.	.	.	.
8r	.	.	.	4r	.	.	.	.	.	.	.
[8a-	Show	.	.	.	.	.	.	.	.	.	.
=135	=135	=135	=135	=135	=135	=135	=135	=135	=135	=135	=135
8a-]	_	1r	.	4.r	.	1E-m	newline	voice	.	231.502	E-:min
8g-	in'	.	.	.	.	.	.	.	.	.	.
8a-	how	.	.	.	.	.	.	.	.	.	.
8r	.	.	.	4aa-	Hee	.	.	.	.	.	.
8g-	fun-	.	.	.	.	.	.	.	.	.	.
8a-	-ky	.	.	8r	.	.	.	.	b	.	.
8r	.	.	.	4gg-	hee	.	.	.	.	.	.
[8a-	strong	.	.	.	.	.	.	.	.	.	.
=136	=136	=136	=136	=136	=136	=136	=136	=136	=136	=136	=136
8a-]	_	1r	.	4.r	.	1D-M	.	voice	.	233.231	D-:maj
8g-	is	.	.	.	.	.	.	.	.	.	.
8a-	your	.	.	.	.	.	.	.	.	.	.
8r	.	.	.	4.aa-	hee	.	.	.	.	.	.
8g-	fight	.	.	.	.	.	.	.	D	.	.
8r	.	.	.	.	.	.	.	.	.	.	.
8r	.	.	.	8gg-	hee	.	.	.	.	.	.
[8a-	It	.	.	8r	.	.	.	.	.	.	.
=137	=137	=137	=137	=137	=137	=137	=137	=137	=137	=137	=137
8a-]	_	1r	.	2r	.	1E-m	.	voice	.	234.96	E-:min
8g-	does-	.	.	.	.	.	.	.	.	.	.
8a-	-n't	.	.	.	.	.	.	.	.	.	.
8r	.	.	.	.	.	.	.	.	.	.	.
8g-	mat-	.	.	8r	.	.	.	.	.	.	.
8a-	-ter	.	.	8bb-	hee	.	.	.	.	.	.
8r	.	.	.	4r	.	.	.	.	.	.	.
[8a-	who's	.	.	.	.	.	.	.	.	.	.
=138	=138	=138	=138	=138	=138	=138	=138	=138	=138	=138	=138
8a-]	_	1r	.	1r	.	1D-M	.	voice	.	236.689	D-:maj
8g-	wrong	.	.	.	.	.	.	.	.	.	.
8a-	or	.	.	.	.	.	.	.	.	.	.
8r	.	.	.	.	.	.	.	.	.	.	.
8g-	right	.	.	.	.	.	.	.	D	.	.
8r	.	.	.	.	.	.	.	.	.	.	.
4a-	Just	.	.	.	.	.	.	.	.	.	.
=139	=139	=139	=139	=139	=139	=139	=139	=139	=139	=139	=139
8b-	beat	2r	.	1r	.	1E-m	newline	voice	B	238.418	E-:min
4.b-	it	.	.	.	.	.	.	.	.	.	.
2r	.	8e- 8g-	Beat	.	.	.	.	.	B	.	.
.	.	4.e- 4.g-	it	.	.	.	.	.	.	.	.
=140	=140	=140	=140	=140	=140	=140	=140	=140	=140	=140	=140
8b-	Beat	2r	.	1r	.	1D-M	.	voice	B	240.153	D-:maj
4.b-	it	.	.	.	.	.	.	.	.	.	.
4r	.	8d- 8f	Beat	.	.	.	.	.	B	.	.
.	.	8d- 8f	it	.	.	.	.	.	.	.	.
8r	.	8r	.	.	.	.	.	.	.	.	.
[8b-	No	[8e- [8g-	No	.	.	.	.	.	.	.	.
=141	=141	=141	=141	=141	=141	=141	=141	=141	=141	=141	=141
8b-]	_	8e-] 8g-]	_	1r	.	1E-m	.	voice	.	241.888	E-:min
8b-	one	8e- 8g-	one	.	.	.	.	.	.	.	.
8b-	wants	8e- 8g-	wants	.	.	.	.	.	.	.	.
8b-	to	8e- 8g-	to	.	.	.	.	.	.	.	.
4dd-	be	4g- 4b-	be	.	.	.	.	.	B	.	.
8b-	de-	8e- 8g-	de-	.	.	.	.	.	b	.	.
[8dd-	-feat	[8f [8a-	-feat-	.	.	.	.	.	B	.	.
=142	=142	=142	=142	=142	=142	=142	=142	=142	=142	=142	=142
8dd-]	_	8f] 8a-]	_	1r	.	1D-M	.	voice	.	243.623	D-:maj
8dd-	ed	8f 8a-	-ed	.	.	.	.	.	.	.	.
4r	.	4r	.	.	.	.	.	.	.	.	.
4r	.	2r	.	.	.	.	.	.	.	.	.
8r	.	.	.	.	.	.	.	.	.	.	.
[8a-	Show	.	.	.	.	.	.	.	.	.	.
=143	=143	=143	=143	=143	=143	=143	=143	=143	=143	=143	=143
*>Label>>Fadeout	*>Label>>Fadeout	*>Label>>Fadeout	*>Label>>Fadeout	*>Label>>Fadeout	*>Label>>Fadeout	*>Label>>Fadeout	*>Label>>Fadeout	*>Label>>Fadeout	*>Label>>Fadeout	*>Label>>Fadeout	*>Label>>Fadeout
8a-]	_	1r	.	1r	.	1E-m	newline	voice	.	245.359	E-:min
8g-	in'	.	.	.	.	.	.	.	.	.	.
8a-	how	.	.	.	.	.	.	.	.	.	.
8r	.	.	.	.	.	.	.	.	.	.	.
8g-	fun-	.	.	.	.	.	.	.	.	.	.
8a-	-ky	.	.	.	.	.	.	.	b	.	.
8r	.	.	.	.	.	.	.	.	.	.	.
[8a-	strong	.	.	.	.	.	.	.	.	.	.
=144	=144	=144	=144	=144	=144	=144	=144	=144	=144	=144	=144
8a-]	_	1r	.	1r	.	1D-M	.	voice	.	247.084	D-:maj
8g-	is	.	.	.	.	.	.	.	.	.	.
8a-	your	.	.	.	.	.	.	.	.	.	.
8r	.	.	.	.	.	.	.	.	.	.	.
8g-	fight	.	.	.	.	.	.	.	D	.	.
8r	.	.	.	.	.	.	.	.	.	.	.
8r	.	.	.	.	.	.	.	.	.	.	.
[8a-	It	.	.	.	.	.	.	.	.	.	.
=145	=145	=145	=145	=145	=145	=145	=145	=145	=145	=145	=145
8a-]	_	1r	.	1r	.	1E-m	.	voice	.	248.81	E-:min
8g-	does-	.	.	.	.	.	.	.	.	.	.
8a-	-n't	.	.	.	.	.	.	.	.	.	.
8r	.	.	.	.	.	.	.	.	.	.	.
8g-	mat-	.	.	.	.	.	.	.	.	.	.
8a-	-ter	.	.	.	.	.	.	.	.	.	.
8r	.	.	.	.	.	.	.	.	.	.	.
[8a-	who's	.	.	.	.	.	.	.	.	.	.
=146	=146	=146	=146	=146	=146	=146	=146	=146	=146	=146	=146
8a-]	_	1r	.	1r	.	1D-M	.	voice	.	250.535	D-:maj
8g-	wrong	.	.	.	.	.	.	.	.	.	.
8a-	or	.	.	.	.	.	.	.	.	.	.
8r	.	.	.	.	.	.	.	.	.	.	.
8g-	right	.	.	.	.	.	.	.	D	.	.
8r	.	.	.	.	.	.	.	.	.	.	.
4a-	Just	.	.	.	.	.	.	.	.	.	.
=147	=147	=147	=147	=147	=147	=147	=147	=147	=147	=147	=147
8b-	beat	2r	.	1r	.	1E-m	newline	voice	B	252.261	E-:min
4.b-	it	.	.	.	.	.	.	.	.	.	.
2r	.	8e- 8g-	Beat	.	.	.	.	.	B	.	.
.	.	4.e- 4.g-	it	.	.	.	.	.	.	.	.
=148	=148	=148	=148	=148	=148	=148	=148	=148	=148	=148	=148
8b-	Beat	2r	.	1r	.	1D-M	.	voice	B	253.399	D-:maj
4.b-	it	.	.	.	.	.	.	.	.	.	.
4r	.	8d- 8f	Beat	.	.	.	.	.	B	.	.
.	.	8d- 8f	it	.	.	.	.	.	.	.	.
8r	.	8r	.	.	.	.	.	.	.	.	.
[8b-	No	[8e- [8g-	No	.	.	.	.	.	.	.	.
=149	=149	=149	=149	=149	=149	=149	=149	=149	=149	=149	=149
8b-]	_	8e-] 8g-]	_	1r	.	1E-m	.	voice	.	254.537	E-:min
8b-	one	8e- 8g-	one	.	.	.	.	.	.	.	.
8b-	wants	8e- 8g-	wants	.	.	.	.	.	.	.	.
8b-	to	8e- 8g-	to	.	.	.	.	.	.	.	.
4dd-	be	4g- 4b-	be	.	.	.	.	.	B	.	.
8b-	de-	8e- 8g-	de-	.	.	.	.	.	b	.	.
[8dd-	-feat	[8f [8a-	-feat-	.	.	.	.	.	B	.	.
=150	=150	=150	=150	=150	=150	=150	=150	=150	=150	=150	=150
8dd-]	_	8f] 8a-]	_	1r	.	1D-M	.	voice	.	255.675	D-:maj
8dd-	ed	8f 8a-	-ed	.	.	.	.	.	.	.	.
4r	.	4r	.	.	.	.	.	.	.	.	.
2r	.	2r	.	.	.	.	.	.	.	.	.
r;	.	r;	.	r;	.	1r;	.	r	.	256.813	N.C.
r;	.	r;	.	r;	.	1r;	.	r	.	257.934	N.C.
*-	*-	*-	*-	*-	*-	*-	*-	*-	*-	*-	*-
!!!BillboardChartDate: 1983/04/02
!!!BillboardPeak: 1
!!!BillboardWeeksOnChart: 25
!!!COC: Michael Jackson
!!!ENC: Nathaniel Condit-Schultz
!!!EST: Awating manual error checking and editing.
!!!OTL: Beat It
!!!RDF**chordsym: original McGill chord annotation + (implied pitch class set, with bass pitch in first position)
!!!RDF**harmony: **recip + pitch class of root + harmonic quality
!!!RDF**leadinstrument: original McGill primary instrumentation annotation
!!!RDF**phrase: newline = linebreak in original McGill transcription
!!!RDF**timestamp: McGill audio timestamp in seconds
!!!RDT: 2017/01/12/
!!!SampleActualRank: 14
!!!SampleID#: 0629
!!!SampleTargetRank: 14
